**kern
*staff1
!!pagebreak:original
*I"P1
*clefG2
*k[f#c#]
*met(c)
*M4/4
4b\
=1
2.dd\
4b\
=2
2.dd\
4b\
=3
4.dd\
8ee\
4ff#\
4aa\
=4
[2aa-\
8aa-\L]
8gg\
8ff#\
8ee\J
=5
[2aa-\
8aa-\L]
8gg\
8ff#\
8ee\J
=6
2.gg\
4dd\
=7
2.gg\
4dd\
=8
4.ee\
8ff#\
4gg\
4aa\
*-
